X: 16676
T: Hanter Dro Kist
R: barndance
M: 4/4
K: Aminor
e2 e/d/ c2 e2 A2 A2|e2 e/d/ c2 d2 e2 g2|
e2 e/d/ c2 e2 A2 A2|e2 e/d/ c2 d2 e4|
e2 e/e/ f2 e2 B3 c/|d2 c/B/ A2 B/c/ B2 G2|
e2 e/e/ f2 e2 B3 c/|d2 e/d/ c2 B2 A4|

